common/svg/cloud-slash-icon.svg

<svg fill="none" height="20" viewBox="0 0 20 20" width="20" xmlns="http://www.w3.org/2000/svg"><g clip-rule="evenodd" fill="#000" fill-rule="evenodd"><path d="m4.45274 6.91291c-.14347.29537-.25161.59992-.31749.90791-1.90035.49145-3.323299 2.18048-3.323299 4.21748 0 2.4313 2.025529 4.3599 4.471099 4.3599h8.65495l-1.6048-1.6048h-7.05015c-1.60609 0-2.86634-1.2562-2.86634-2.7551 0-1.3961 1.08925-2.58081 2.53473-2.73969l.71471-.07856v-.71902c0-.10601.01243-.21907.03744-.33727zm3.32824-1.1441-1.17457-1.17457c.94883-.59393 2.11375-.98169 3.39357-.98169 3.06322 0 5.62612 2.23026 5.99732 5.15315 1.8024.34249 3.1907 1.8877 3.1907 3.7808 0 1.2616-.6163 2.3686-1.5612 3.0681l-1.1552-1.1552c.6725-.3997 1.1117-1.1157 1.1117-1.9129 0-1.2184-1.0257-2.247-2.3423-2.247h-.8024v-.80236c0-2.34084-1.964-4.27983-4.43862-4.27983-.81452 0-1.57107.21159-2.219.5515z"/><path d="m16.291 17.3055-13.41708-13.41705.7906-.79061 13.41708 13.41706z"/></g></svg>

<svg width="20" height="20" viewBox="0 0 20 20" fill="none" xmlns="http://www.w3.org/2000/svg">
<path fill-rule="evenodd" clip-rule="evenodd" d="M4.45274 6.91291C4.30927 7.20828 4.20113 7.51283 4.13525 7.82082C2.2349 8.31227 0.811951 10.0013 0.811951 12.0383C0.811951 14.4696 2.83748 16.3982 5.28305 16.3982H13.938L12.3332 14.7934H5.28305C3.67696 14.7934 2.41671 13.5372 2.41671 12.0383C2.41671 10.6422 3.50596 9.45749 4.95144 9.29861L5.66615 9.22005V8.50103C5.66615 8.39502 5.67858 8.28196 5.70359 8.16376L4.45274 6.91291ZM7.78098 5.76881L6.60641 4.59424C7.55524 4.00031 8.72016 3.61255 9.99998 3.61255C13.0632 3.61255 15.6261 5.84281 15.9973 8.7657C17.7997 9.10819 19.188 10.6534 19.188 12.5465C19.188 13.8081 18.5717 14.9151 17.6268 15.6146L16.4716 14.4594C17.1441 14.0597 17.5833 13.3437 17.5833 12.5465C17.5833 11.3281 16.5576 10.2995 15.241 10.2995H14.4386V9.49714C14.4386 7.1563 12.4746 5.21731 9.99998 5.21731C9.18546 5.21731 8.42891 5.4289 7.78098 5.76881Z" fill="black"/>
<path fill-rule="evenodd" clip-rule="evenodd" d="M16.291 17.3055L2.87392 3.88845L3.66452 3.09784L17.0816 16.5149L16.291 17.3055Z" fill="black"/>
</svg>
